svgs/sharp-light/bowl-food.svg

<svg xmlns="http://www.w3.org/2000/svg" viewBox="0 0 512 512"><!--! Font Awesome Pro 6.6.0 by @fontawesome - https://fontawesome.com License - https://fontawesome.com/license (Commercial License) Copyright 2024 Fonticons, Inc. --><path d="M203.8 98.2l-7.8 16.1-15.1-9.6C172 99.2 161.8 96 151 96c-27.8 0-52.1 21.2-57.8 51l-2.5 13.4L77.1 160c-.4 0-.7 0-1.1 0c-23.3 0-44 20.5-44 48l0 16L0 224l0-16c0-39.4 27.5-73.5 64.9-79.2C77 91.6 110.5 64 151 64c11.4 0 22.3 2.2 32.3 6.2C199.8 47.2 226 32 256 32s56.2 15.2 72.7 38.2c10-4 20.9-6.2 32.3-6.2c40.5 0 74 27.6 86.1 64.8c37.4 5.7 64.9 39.8 64.9 79.2l0 16-32 0 0-16c0-27.5-20.7-48-44-48c-.4 0-.7 0-1.1 0l-13.6 .4L418.8 147c-5.7-29.8-30-51-57.8-51c-10.8 0-21 3.2-29.8 8.7l-15.1 9.6-7.8-16.1C298.1 77.5 278.2 64 256 64s-42.1 13.5-52.2 34.2zM128 431.8l0 16.2 256 0 0-16.2 0-20.2 18.3-8.7c43.7-20.8 74.6-64.1 77.5-114.9L32.2 288c2.9 50.8 33.8 94.2 77.5 114.9l18.3 8.7 0 20.2zm-32 0C41.5 405.9 3.2 351.6 .2 288c-.1-2.7-.2-5.3-.2-8l0-24 32 0 448 0 32 0 0 24c0 2.7-.1 5.3-.2 8c-3 63.6-41.3 117.9-95.8 143.8l0 16.2 0 32-32 0-256 0-32 0 0-32 0-16.2z"/></svg>

<svg xmlns="http://www.w3.org/2000/svg" viewBox="0 0 512 512"><!--! Font Awesome Pro 6.4.0 by @fontawesome - https://fontawesome.com License - https://fontawesome.com/license (Commercial License) Copyright 2023 Fonticons, Inc. --><path d="M203.8 98.2l-7.8 16.1-15.1-9.6C172 99.2 161.8 96 151 96c-27.8 0-52.1 21.2-57.8 51l-2.5 13.4L77.1 160c-.4 0-.7 0-1.1 0c-23.3 0-44 20.5-44 48v16H0V208c0-39.4 27.5-73.5 64.9-79.2C77 91.6 110.5 64 151 64c11.4 0 22.3 2.2 32.3 6.2C199.8 47.2 226 32 256 32s56.2 15.2 72.7 38.2c10-4 20.9-6.2 32.3-6.2c40.5 0 74 27.6 86.1 64.8c37.4 5.7 64.9 39.8 64.9 79.2v16H480V208c0-27.5-20.7-48-44-48c-.4 0-.7 0-1.1 0l-13.6 .4L418.8 147c-5.7-29.8-30-51-57.8-51c-10.8 0-21 3.2-29.8 8.7l-15.1 9.6-7.8-16.1C298.1 77.5 278.2 64 256 64s-42.1 13.5-52.2 34.2zM128 431.8V448H384V431.8 411.6l18.3-8.7c43.7-20.8 74.6-64.1 77.5-114.9H32.2c2.9 50.8 33.8 94.2 77.5 114.9l18.3 8.7v20.2zm-32 0C41.5 405.9 3.2 351.6 .2 288c-.1-2.7-.2-5.3-.2-8V256H32 480h32v24c0 2.7-.1 5.3-.2 8c-3 63.6-41.3 117.9-95.8 143.8V448v32H384 128 96V448 431.8z"/></svg>
